X:503
T: Rtsel (207a), S. 453
N: T0391
O: Luxemburg
S: Singendes Volk, Esch-Alzette, 1937 posth.]
N: Junglinster, hhh Johann Wrth, 25.12.1932
R: Rtsel-, Wunsch-, Wettlied]
M: 4/4
L: 1/8
K: F
 | F2CFA2FA | c2ccc2A
F | ccccc2Ac | c2cdc2z2 |
ccccf2AA | A2c2e3
d | cccdcGGB | A2G2F2z2

@@@ Tune index: 8557
